X:1
T:That Heavenly City
T:That Heavenly City
T:L. O. Brock
T:Simeon Jonathan  Calvert, 1913
T:Public Domain Courtesy of the Cyber Hymnal™
T:Public Domain Courtesy of the Cyber Hymnal™
C:L. O. Brock
Z:Public Domain
Z:Courtesy of the Cyber Hymnal™
%%score ( 1 2 ) ( 3 4 )
L:1/8
Q:1/4=80
M:6/8
K:G
V:1 treble 
V:2 treble 
V:3 bass 
V:4 bass 
V:1
 [B,D] | [DB]>[^C^A][DB] [=C=A]<!fermata![B,G]D | [CE]>[CF][CG] [B,D]2 D | %3
w: 1.~A|heav- en- ly ci- ty is|wait- ing a- bove, Pre-|
w: 2.~When|we to that ci- ty shall|cross o’er the tide, And|
w: 3.~O|yes, ’twill be glor- ious to|gain that bright shore, And|
w: 4.~O|sin- ner, now yield to the|Sav- ior and live, For|
 [DG]>[DG][DG] [GB][FA]G | ([F-A]3 [Fd]2) [GB] | [Gd]>[Gd][Gd] [DB][DA][DG] | %6
w: pared by our Sav- ior’s own|hand, * For|all of God’s child- ren who|
w: loved ones have wel- comed us|in, * With|Je- sus our Sav- ior, we|
w: live with our Sav- ior up|there, * To|sing with the an- gels the|
w: He is the Truth and the|Way; * He’ll|cleanse you from e- vil and|
 [EA]<[EG][CE] [EG]2 [Gc] | [GB]>[FA][DG] [DF][DG][DA] | [DG]3- [DG]2 ||"^Refrain" D/D/ | %10
w: trust in His love While|trav- el- ing on to that|land. *||
w: e’er shall a- bide, Se-|cure from all sor- row and|sin. *|Leave the|
w: sweet sto- ry o’er, And|all of Heav’n’s bless- ings to|share. *||
w: free- ly for- give, And|you shall be hap- py each|day! *||
 [GB]>[G^A][GB] G>[G=A][GB] | [Gc]2 [Gc] [GB]2 [GB] | [FA]>[EG][FA] [GB]>[DA]G | %13
w: |||
w: dark- ness, dear sin- ner, why|wait so long? O|trust in the Sav- ior’s blest|
w: |||
w: |||
 ([F-A]3 !fermata![Fd]2) [Gd] | [GB]>[GB][GB] [GB]>[GA][DG] | %15
w: ||
w: love, * And|ev- er- more dwell with the|
w: ||
w: ||
 [EG]>[EA][FB] !fermata![Gc]2 [Gc]/[Gc]/ | [GB]>[FA][DG] [DF][DG][DA] | [DG]3- [DG]2 |] %18
w: |||
w: glo- ri- ous throng In that|heav- en- ly ci- ty a-|bove! *|
w: |||
w: |||
V:2
 x | x5 D | x5 D | x5 G | x6 | x6 | x6 | x6 | x5 || D/D/ | x3 G3/2 x3/2 | x6 | x5 G | x6 | x6 | %15
 x6 | x6 | x5 |] %18
V:3
 [G,,G,] | [G,,G,]>[G,,G,][G,,G,] [G,,G,]<!fermata![G,,G,][B,,G,] | %2
 [C,G,]>[C,G,][E,G,] G,2 [G,B,] | [G,B,]>[G,B,][G,B,] [G,D][G,C][G,B,] | [D,D]3- [D,D]2 [G,D] | %5
 [G,B,]>[G,B,][G,B,] [G,,G,][A,,F,][B,,G,] | [C,C]<[C,C][C,G,] [C,C]2 [C,E] | %7
 [D,D]>[D,C][D,B,] [D,A,][D,B,][D,C] | [G,,B,]3- [G,,B,]2 || [G,B,]/[G,B,]/ | %10
 [G,D]>[G,^C][G,D] [G,B,]>[G,=C][G,D] | [C,E]2 [C,E] [G,D]2 [G,D] | %12
 [D,D]>[D,D][D,D] [G,D]>[F,D][E,^C] | ([D,-D]3 !fermata![D,A,]2) [G,B,] | %14
 [G,D]>[G,D][G,D] [G,D]>[G,C][G,B,] | [E,B,]>[E,C][D,D] !fermata![C,E]2 [C,E]/[C,E]/ | %16
 [D,D]>[D,C][D,B,] [D,A,][D,B,][D,C] | [G,,B,]3- [G,,B,]2 |] %18
V:4
 x | x6 | x3 G,2 x | x6 | x6 | x6 | x6 | x6 | x5 || x | x6 | x6 | x6 | x6 | x6 | x6 | x6 | x5 |] %18

